X: 1
T: Democratic Rage Hornpipe
K: Bb
M: C|
Q: 1/4=220
L: 1/8
|: F2 | "Bb" B2 Bc BFDF | BcdB | "Eb" edcB | "Bb" Bdfg "Gm" fdBd | "Cm" edcB "F" ABAF |
"Bb" B2 Bc BFDF | BcdB "Eb" edcB | "Bb" Bdfg "F" fcAc | "Bb" B2 d2 B2 :|
|: df | "Bb" f2 fg fdfb | "Eb" g2 gf gfga | "Bb" bagf "Gm" edcB | "F" ABcA F2 de |
"Bb" f2 fg fdfb | "Eb" g2 ga gfga | "Bb" bfdB "F" ecAc | "Bb" B2 d2 B2 :|
